resources/haticons/SVG/paragraph-right.svg

<!-- Generated by IcoMoon.io -->
<svg version="1.1" xmlns="http://www.w3.org/2000/svg" width="24" height="24" viewBox="0 0 24 24">
<title>paragraph-right</title>
<path d="M0 1.5h24v3h-24zM9 6h15v3h-15zM9 15h15v3h-15zM0 10.5h24v3h-24zM0 19.5h24v3h-24z"></path>
</svg>

<svg xmlns="http://www.w3.org/2000/svg" width="24" height="24"><path d="M0 1.5h24v3H0zM9 6h15v3H9zm0 9h15v3H9zm-9-4.5h24v3H0zm0 9h24v3H0z"/></svg>
